assets/Woman pouting/Medium/Flat/woman_pouting_flat_medium.svg

<svg width="32" height="32" viewBox="0 0 32 32" fill="none" xmlns="http://www.w3.org/2000/svg">
<path d="M23.6535 11.9211C23.8675 11.4872 23.9898 11.0039 23.9898 10.4911C23.9898 9.82051 23.786 9.18935 23.4191 8.67653C23.0625 8.15385 22.8688 7.54241 22.879 6.91124V6.90138C22.879 5.08678 21.3606 3.6075 19.4753 3.6075C19.2919 3.6075 19.1187 3.5286 19.0066 3.38067C18.3951 2.54241 17.3863 2 16.2449 2C15.1036 2 14.0947 2.54241 13.4832 3.38067C13.3711 3.51874 13.1979 3.6075 13.0145 3.6075C11.1394 3.6075 9.61078 5.07692 9.61078 6.90138V6.91124C9.61078 7.54241 9.42735 8.15385 9.07068 8.67653C8.70381 9.19921 8.5 9.82051 8.5 10.4911C8.5 11.0039 8.62229 11.4872 8.83629 11.9211C8.90763 12.069 8.90763 12.2367 8.83629 12.3748C8.62229 12.7988 8.5 13.2722 8.5 13.785C8.5 15.5602 9.98784 17 11.8222 17H20.6778C22.5122 17 24 15.5602 24 13.785C24 13.2821 23.8777 12.8087 23.6637 12.3748C23.5822 12.2268 23.5822 12.0592 23.6535 11.9211Z" fill="#593B39"/>
<path d="M22.5129 30C24.1658 30 25.5 28.7215 25.5 27.151V23.6174C25.5 18.8557 21.3579 15 16.25 15C11.1421 15 7 18.8557 7 23.6174V27.151C7 28.7215 8.33423 30 9.98708 30H22.5129Z" fill="#A17FD5"/>
<path d="M16.25 19C15.0068 19 14 18.0144 14 16.7974V14.2026C14 12.9856 15.0068 12 16.25 12C17.4932 12 18.5 12.9856 18.5 14.2026V16.7974C18.5 18.0144 17.4932 19 16.25 19Z" fill="#B87A66"/>
<path d="M10.5 25H7V23.6174C7 20.9575 8.29247 18.5803 10.3238 17H10.5V25Z" fill="#8B62BF"/>
<path d="M22 25H25.5V23.6174C25.5 20.9575 24.2075 18.5803 22.1762 17H22V25Z" fill="#8B62BF"/>
<path d="M13 10.5C13 11.3284 12.3284 12 11.5 12C10.6716 12 10 11.3284 10 10.5C10 9.67157 10.6716 9 11.5 9C12.3284 9 13 9.67157 13 10.5Z" fill="#BB806E"/>
<path d="M22.5 10.5C22.5 11.3284 21.8284 12 21 12C20.1716 12 19.5 11.3284 19.5 10.5C19.5 9.67157 20.1716 9 21 9C21.8284 9 22.5 9.67157 22.5 10.5Z" fill="#BB806E"/>
<path d="M11.3041 7.42418C12.1768 7.36217 12.9411 6.80902 13.28 5.98999L13.36 5.79999C13.44 5.59999 13.7 5.56999 13.82 5.74999C14.54 6.79999 15.73 7.42999 17.01 7.42999H21.2423C21.3481 7.79738 21.3972 8.18731 21.38 8.58999L21.24 11.92C21.12 14.76 18.93 16.66 16.27 16.66C13.61 16.66 11.42 14.76 11.3 11.92L11.16 8.58999C11.1447 8.18519 11.1959 7.79326 11.3041 7.42418Z" fill="#C68D7B"/>
<path d="M17.2489 13.75C17.197 13.75 17.1464 13.7339 17.1039 13.704C16.8388 13.5696 16.5457 13.4995 16.2485 13.4995C15.9512 13.4995 15.6581 13.5696 15.3929 13.704C15.3388 13.7417 15.272 13.7565 15.207 13.7451C15.142 13.7338 15.0841 13.6973 15.046 13.6434C15.0079 13.5896 14.9926 13.5228 15.0034 13.4578C15.0143 13.3927 15.0504 13.3346 15.1039 13.296C15.4543 13.1013 15.8486 12.9991 16.2494 12.9991C16.6503 12.9991 17.0446 13.1013 17.3949 13.296C17.4379 13.3269 17.47 13.3706 17.4865 13.4209C17.503 13.4712 17.5032 13.5253 17.487 13.5757C17.4708 13.626 17.4389 13.6699 17.3962 13.701C17.3534 13.7322 17.3019 13.749 17.2489 13.749V13.75Z" fill="#990838"/>
<path d="M15.9 10.262L15.39 11.8484C15.28 12.1695 15.54 12.5 15.9 12.5H16.67C17.03 12.5 17.29 12.1695 17.18 11.8484L16.65 10.262C16.54 9.91265 16.02 9.91265 15.9 10.262Z" fill="#AB6A55"/>
<path d="M12.99 23.25L21.85 24.79H25.5V27.24C25.5 28.12 25.05 28.95 24.3 29.47C23.79 29.82 23.18 30 22.57 30H22.56C22.13 30 21.71 29.88 21.32 29.68L9.41003 25C9.41003 25 9.98004 22.65 12.99 23.25Z" fill="#BB806E"/>
<path d="M19.51 23.3561L10.65 25H7V27.22C7 28.1 7.45 28.93 8.2 29.45C8.71 29.8 9.32 29.98 9.93 29.98H9.94C10.37 29.98 10.79 29.86 11.18 29.66L23.03 24.8961C23.02 24.8961 22.52 22.7561 19.51 23.3561Z" fill="#C68D7B"/>
<path d="M13.64 9C14.21 9 14.68 9.39 14.97 9.83C14.7676 9.89072 14.5703 9.94809 14.3752 10.0048C13.8958 10.1442 13.4305 10.2794 12.94 10.45L12.46 10.01C12.25 9.83 12.27 9.51 12.49 9.35C12.81 9.13 13.24 9 13.64 9Z" fill="black"/>
<path d="M18.9232 9C18.3532 9 17.8832 9.39 17.5932 9.83C17.7956 9.89072 17.993 9.94809 18.188 10.0048C18.6675 10.1442 19.1327 10.2794 19.6232 10.45L20.1032 10.01C20.3132 9.83 20.2932 9.51 20.0732 9.35C19.7532 9.13 19.3232 9 18.9232 9Z" fill="black"/>
<path d="M15.4794 10.251C15.5021 10.3872 15.388 10.5 15.2499 10.5H12.7499C12.6118 10.5 12.4977 10.3872 12.5205 10.251C12.6391 9.5411 13.2563 9 13.9999 9C14.7435 9 15.3608 9.5411 15.4794 10.251Z" fill="white"/>
<path d="M19.9617 10.251C19.9844 10.3872 19.8703 10.5 19.7323 10.5H17.2323C17.0942 10.5 16.9801 10.3872 17.0028 10.251C17.1214 9.5411 17.7386 9 18.4823 9C19.2259 9 19.8431 9.5411 19.9617 10.251Z" fill="white"/>
<path d="M15 10.125C15 10.2592 14.9698 10.3863 14.9158 10.5H13.3342C13.2802 10.3863 13.25 10.2592 13.25 10.125C13.25 9.64175 13.6418 9.25 14.125 9.25C14.6082 9.25 15 9.64175 15 10.125Z" fill="#7D4533"/>
<path d="M19.25 10.125C19.25 10.2592 19.2198 10.3863 19.1658 10.5H17.5842C17.5302 10.3863 17.5 10.2592 17.5 10.125C17.5 9.64175 17.8918 9.25 18.375 9.25C18.8582 9.25 19.25 9.64175 19.25 10.125Z" fill="#7D4533"/>
<path d="M14.624 10.12C14.624 10.2721 14.5561 10.4083 14.449 10.5H13.7991C13.6919 10.4083 13.624 10.2721 13.624 10.12C13.624 9.84385 13.8479 9.62 14.124 9.62C14.4002 9.62 14.624 9.84385 14.624 10.12Z" fill="black"/>
<path d="M18.874 10.12C18.874 10.2721 18.8061 10.4083 18.699 10.5H18.0491C17.9419 10.4083 17.874 10.2721 17.874 10.12C17.874 9.84385 18.0979 9.62 18.374 9.62C18.6502 9.62 18.874 9.84385 18.874 10.12Z" fill="black"/>
<path d="M13.8 9.9C13.9104 9.9 14 9.81046 14 9.7C14 9.58954 13.9104 9.5 13.8 9.5C13.6895 9.5 13.6 9.58954 13.6 9.7C13.6 9.81046 13.6895 9.9 13.8 9.9Z" fill="white"/>
<path d="M18.05 9.9C18.1604 9.9 18.25 9.81046 18.25 9.7C18.25 9.58954 18.1604 9.5 18.05 9.5C17.9395 9.5 17.85 9.58954 17.85 9.7C17.85 9.81046 17.9395 9.9 18.05 9.9Z" fill="white"/>
<path d="M16.9574 14.5H15.5427C15.6457 14.2087 15.9235 14 16.25 14C16.5766 14 16.8544 14.2087 16.9574 14.5Z" fill="#A9715F"/>
<path d="M12.75 8C12.6119 8 12.5 8.11193 12.5 8.25C12.5 8.38807 12.6119 8.5 12.75 8.5H14.75C14.8881 8.5 15 8.38807 15 8.25C15 8.11193 14.8881 8 14.75 8H12.75Z" fill="#593B39"/>
<path d="M17.75 8C17.6119 8 17.5 8.11193 17.5 8.25C17.5 8.38807 17.6119 8.5 17.75 8.5H19.75C19.8881 8.5 20 8.38807 20 8.25C20 8.11193 19.8881 8 19.75 8H17.75Z" fill="#593B39"/>
</svg>

<svg xmlns="http://www.w3.org/2000/svg" width="32" height="32" fill="none"><path fill="#593B39" d="M23.654 11.921a3.22 3.22 0 0 0 .336-1.43 3.11 3.11 0 0 0-.57-1.814 3.042 3.042 0 0 1-.541-1.766v-.01c0-1.814-1.518-3.293-3.404-3.293a.581.581 0 0 1-.468-.227A3.404 3.404 0 0 0 16.245 2c-1.141 0-2.15.542-2.762 1.38a.61.61 0 0 1-.469.228c-1.875 0-3.403 1.469-3.403 3.293v.01c0 .631-.184 1.243-.54 1.766A3.132 3.132 0 0 0 8.5 10.49c0 .513.122.996.336 1.43a.508.508 0 0 1 0 .454 3.104 3.104 0 0 0-.336 1.41C8.5 15.56 9.988 17 11.822 17h8.856C22.512 17 24 15.56 24 13.785c0-.503-.122-.976-.336-1.41a.478.478 0 0 1-.01-.454Z"/><path fill="#A17FD5" d="M22.513 30c1.653 0 2.987-1.279 2.987-2.849v-3.534c0-4.761-4.142-8.617-9.25-8.617S7 18.856 7 23.617v3.534C7 28.721 8.334 30 9.987 30h12.526Z"/><path fill="#B87A66" d="M16.25 19c-1.243 0-2.25-.986-2.25-2.203v-2.594C14 12.986 15.007 12 16.25 12s2.25.986 2.25 2.203v2.594c0 1.217-1.007 2.203-2.25 2.203Z"/><path fill="#8B62BF" d="M10.5 25H7v-1.383c0-2.66 1.292-5.037 3.324-6.617h.176v8ZM22 25h3.5v-1.383c0-2.66-1.293-5.037-3.324-6.617H22v8Z"/><path fill="#BB806E" d="M13 10.5a1.5 1.5 0 1 1-3 0 1.5 1.5 0 0 1 3 0ZM22.5 10.5a1.5 1.5 0 1 1-3 0 1.5 1.5 0 0 1 3 0Z"/><path fill="#C68D7B" d="M11.304 7.424A2.319 2.319 0 0 0 13.28 5.99l.08-.19c.08-.2.34-.23.46-.05a3.864 3.864 0 0 0 3.19 1.68h4.232c.106.367.155.757.138 1.16l-.14 3.33c-.12 2.84-2.31 4.74-4.97 4.74-2.66 0-4.85-1.9-4.97-4.74l-.14-3.33a3.646 3.646 0 0 1 .144-1.166Z"/><path fill="#990838" d="M17.249 13.75a.252.252 0 0 1-.145-.046 1.892 1.892 0 0 0-1.711 0 .25.25 0 0 1-.29-.408 2.359 2.359 0 0 1 2.292 0 .25.25 0 0 1-.146.453v.001Z"/><path fill="#AB6A55" d="m15.9 10.262-.51 1.586c-.11.321.15.652.51.652h.77c.36 0 .62-.33.51-.652l-.53-1.586c-.11-.35-.63-.35-.75 0Z"/><path fill="#BB806E" d="m12.99 23.25 8.86 1.54h3.65v2.45c0 .88-.45 1.71-1.2 2.23-.51.35-1.12.53-1.73.53h-.01c-.43 0-.85-.12-1.24-.32L9.41 25s.57-2.35 3.58-1.75Z"/><path fill="#C68D7B" d="M19.51 23.356 10.65 25H7v2.22c0 .88.45 1.71 1.2 2.23.51.35 1.12.53 1.73.53h.01c.43 0 .85-.12 1.24-.32l11.85-4.764c-.01 0-.51-2.14-3.52-1.54Z"/><path fill="#000" d="M13.64 9c.57 0 1.04.39 1.33.83l-.595.175c-.48.14-.944.274-1.435.445l-.48-.44c-.21-.18-.19-.5.03-.66.32-.22.75-.35 1.15-.35ZM18.923 9c-.57 0-1.04.39-1.33.83l.595.175c.48.14.945.274 1.435.445l.48-.44c.21-.18.19-.5-.03-.66-.32-.22-.75-.35-1.15-.35Z"/><path fill="#fff" d="M15.48 10.251c.022.136-.092.249-.23.249h-2.5c-.138 0-.252-.113-.23-.249a1.5 1.5 0 0 1 2.96 0ZM19.962 10.251c.022.136-.092.249-.23.249h-2.5c-.138 0-.252-.113-.23-.249a1.5 1.5 0 0 1 2.96 0Z"/><path fill="#7D4533" d="M15 10.125c0 .134-.03.261-.084.375h-1.582A.875.875 0 1 1 15 10.125ZM19.25 10.125c0 .134-.03.261-.084.375h-1.582a.875.875 0 1 1 1.666-.375Z"/><path fill="#000" d="M14.624 10.12a.499.499 0 0 1-.175.38h-.65a.499.499 0 0 1 .325-.88.5.5 0 0 1 .5.5ZM18.874 10.12a.499.499 0 0 1-.175.38h-.65a.499.499 0 0 1 .325-.88.5.5 0 0 1 .5.5Z"/><path fill="#fff" d="M13.8 9.9a.2.2 0 1 0 0-.4.2.2 0 0 0 0 .4ZM18.05 9.9a.2.2 0 1 0 0-.4.2.2 0 0 0 0 .4Z"/><path fill="#A9715F" d="M16.957 14.5h-1.414a.75.75 0 0 1 1.414 0Z"/><path fill="#593B39" d="M12.75 8a.25.25 0 1 0 0 .5h2a.25.25 0 1 0 0-.5h-2ZM17.75 8a.25.25 0 1 0 0 .5h2a.25.25 0 1 0 0-.5h-2Z"/></svg>
